outputs/icons/device/bluetooth_round.svg

<svg xmlns="http://www.w3.org/2000/svg" width="1200" height="1200" fill="none"><g clip-path="url(#a)"><path fill="#000" d="m850 350.002-214.5-214.5c-31.5-31.5-85.5-9.5-85.5 35v309l-194.502-194.5c-19.5-19.5-51-19.5-70.499 0-19.501 19.5-19.501 51 0 70.5L529.5 600.005l-244.501 244.5c-19.501 19.5-19.501 51 0 70.5 19.499 19.5 50.999 19.5 70.499 0L550 720.505v309c0 44.5 54 66.995 85.5 35.5l214.5-215c19.5-19.5 19.5-51 0-70.5l-179.5-179.5L850 421.002c19.5-19.5 19.5-51.5 0-71m-200-58.5 94 94-94 94zm94 523.003-94 94v-188z"/></g><defs><clipPath id="a"><path fill="#fff" d="M0 0h1200v1200H0z"/></clipPath></defs></svg>

<svg width="1200" height="1200" viewBox="0 0 1200 1200" fill="none" xmlns="http://www.w3.org/2000/svg"><g clip-path="url(#clip0_231_4444)"><path d="M850.01 350.002L635.51 135.502C604.01 104.002 550.01 126.002 550.01 170.502V479.502L355.511 285.002C336.011 265.502 304.51 265.502 285.011 285.002C265.51 304.502 265.51 336.002 285.011 355.502L529.51 600.005L285.011 844.505C265.51 864.005 265.51 895.505 285.011 915.005C304.51 934.505 336.011 934.505 355.511 915.005L550.01 720.505V1029.505C550.01 1074.005 604.01 1096.5 635.51 1065.005L850.01 850.005C869.51 830.505 869.51 799.005 850.01 779.505L670.51 600.005L850.01 421.002C869.51 401.502 869.51 369.502 850.01 350.002ZM650.01 291.502L744.01 385.502L650.01 479.502V291.502ZM744.01 814.505L650.01 908.505V720.505L744.01 814.505Z" fill="#1D1E23"/></g><defs><clipPath id="clip0_231_4444"><path width="24" fill="white" d="M0 0H1200V1200H0V0z"/></clipPath></defs></svg>
